X:1
T:Helan
T:Helan går
T:arr: Julius Wibergh
C:arr: Einar Ralf
%%score [ 1 2 3 4 ]
L:1/8
Q:1/4=120
M:4/4
K:A
V:1 treble-8 nm="T1"
V:2 treble-8 nm="T2"
V:3 bass nm="B1"
V:4 bass nm="B2"
V:1
!f! c2 e2 A3 c | B B/ B/ B B c A A2 | c2 e2 A3 c | B B/ B/ B B A4 |!p!!<(! B2 d2!<)! B4 | %5
w: He- lan går! Sjung|hopp fal- le- ral- la- la- la- lej|He- lan går! sjung|hopp fal- le- ral- la- lej.|He- lan går!|
!<(! c2 e2!<)! c4 |!f! ^d2 f2 a2 d2 | e z/ e/ e2 z4 |!mf! c2 e2 A4 |!<(! d2 f2 B2!<)! f2 | %10
w: He- lan går,|he- lan, he- lan|går, gu- tår!|He- lan går,|he- lan går, gu-|
 e4!ff! g2 g2 | a8 |] %12
w: tår! He- lan|går!|
V:2
!f! A2 c2 A3 A | G G/ G/ G G A A A2 | A2 c2 A3 A | G G/ G/ G G A4 |!p!!<(! G2 B2!<)! G4 | %5
w: He- lan går! Sjung|hopp fal- le- ral- la- la- la- lej|He- lan går! sjung|hopp fal- le- ral- la- lej.|He- lan går!|
!<(! A2 c2!<)! A4 |!f! B2 B2 ^d2 B2 | B z/ B/ B2 z4 |!mf! A2 c2 A4 |!<(! B2 d2 B2!<)! B2 | %10
w: He- lan går,|he- lan, he- lan|går, gu- tår!|He- lan går,|he- lan går, gu-|
 c4!ff! e2 e2 | e8 |] %12
w: tår! He- lan|går!|
V:3
 z4!f! C,2 E,2 | E, E,/ E,/ E, E, E, C, C,2 | z4 C,2 E,2 | E, E,/ E,/ E, D, C,4 | %4
w: He- lan|går! Fal- le- ral- la- la- la- lej|He- lan|går! Fal- le- ral- la- lej.|
!p!!<(! E,2 E,2!<)! E,4 |!<(! A,2 A,2!<)! A,4 |!f! A,2 A,2 F,2 A,2 | G, z/ G,/ G,2 z!mf! E, E, E, | %8
w: He- lan går!|He- lan går,|he- lan, he- lan|går, gu- tår! Ja he- lan|
 E,4 C,2 E,2 | F,4 D,2 F,2 | A,4!ff! B,2 B,2 | C8 |] %12
w: går, he- lan|går, he- lan|går, he- lan|går!|
V:4
 z4!f! A,,2 C,2 | E, E,/ E,/ E, E, A,, A,, A,,2 | z4 A,,2 C,2 | E, E,/ E,/ E, E, A,,4 | %4
w: He- lan|går! Fal- le- ral- la- la- la- lej|He- lan|går! Fal- le- ral- la- lej.|
 z4 z!mf! E, G, E, | A,4- A, A,, C, E, |!f! F,2 ^D,2 B,,2 B,,2 | E, z/ E,/ E,2 z!mf! E,, F,, G,, | %8
w: Ja he- lan|går, _ ja he- lan,|he- lan, he- lan|går, gu- tår! Ja he- lan|
 A,,4 A,,2 C,2 | B,,4 B,,2 D,2 | E,4!ff! E,2 E,2 | A,,8 |] %12
w: går, he- lan|går, he- lan|går, he- lan|går!|

